arkscan/icons/onus.svg

<svg width="201" height="200" viewBox="0 0 201 200" fill="none" xmlns="http://www.w3.org/2000/svg">
<path d="M49.9757 62.4693C52.9023 64.1114 56.5431 63.5402 58.8273 61.1129C69.2498 49.9041 84.1698 42.8362 100.661 42.8362C117.222 42.8362 132.071 49.8327 142.493 61.1129C144.777 63.5402 148.418 64.1114 151.346 62.4693L176.545 47.9051C180.329 45.6919 181.328 40.6943 178.544 37.2674C160.197 14.4929 132.142 0 100.661 0C69.1782 0 41.1232 14.5643 22.7765 37.2674C20.064 40.6943 21.0631 45.6919 24.7756 47.9051L49.9757 62.4693Z" fill="#0068FF"/>
<path d="M155.205 83.1026C156.989 88.8858 157.846 95.0966 157.703 101.522C156.918 131.364 132.646 155.924 102.806 157.066C70.253 158.28 43.483 132.292 43.483 100.022C43.483 94.1683 44.3397 88.5283 45.9813 83.174C46.9813 79.9612 45.6246 76.5344 42.7688 74.8923L17.5697 60.3281C13.7855 58.1862 8.93133 59.8283 7.36133 63.8263C2.64966 75.8918 0.293844 89.0283 0.65051 102.878C2.14968 155.781 45.3388 198.76 98.2372 199.973C154.491 201.258 200.536 155.995 200.536 100.022C200.536 87.2433 198.108 75.0351 193.754 63.8263C192.183 59.7569 187.329 58.1149 183.545 60.3281L158.345 74.8923C155.561 76.463 154.205 79.9612 155.205 83.1026Z" fill="#0068FF"/>
</svg>

<svg width="201" height="200" fill="none" xmlns="http://www.w3.org/2000/svg"><path d="M49.976 62.47a7.26 7.26 0 0 0 8.851-1.357C69.25 49.904 84.17 42.836 100.661 42.836c16.561 0 31.41 6.997 41.832 18.277a7.262 7.262 0 0 0 8.853 1.356l25.199-14.564c3.784-2.213 4.783-7.21 1.999-10.638C160.197 14.493 132.142 0 100.661 0 69.178 0 41.123 14.564 22.776 37.267c-2.712 3.427-1.713 8.425 2 10.638l25.2 14.564Z" fill="#0068FF"/><path d="M155.205 83.103c1.784 5.783 2.641 11.994 2.498 18.419-.785 29.842-25.057 54.402-54.897 55.544-32.553 1.214-59.323-24.774-59.323-57.044 0-5.854.857-11.494 2.498-16.848 1-3.213-.356-6.64-3.212-8.282l-25.2-14.564c-3.783-2.142-8.638-.5-10.208 3.498C2.65 75.892.294 89.028.651 102.878c1.499 52.903 44.688 95.882 97.586 97.095 56.254 1.285 102.299-43.978 102.299-99.951a99.779 99.779 0 0 0-6.782-36.196c-1.571-4.07-6.425-5.711-10.209-3.498l-25.2 14.564c-2.784 1.571-4.14 5.07-3.14 8.21Z" fill="#0068FF"/></svg>
